X: 305644
T: COTILLION No. 4. COQUETTE SETT tune 2
%R: jig
B: Elias Howe "The Musician's Companion" Part 3 1844 p.84 #2
S: http://imslp.org/wiki/The_Musician's_Companion_(Howe,_Elias)
Z: 2015 John Chambers <jc:trillian.mit.edu>
M: 6/8
L: 1/8
K: D
% - - - - - - - - - - - - - - - - - - - - - - - - - - - - -
d/e/ |\
fAf gfg | eAe fef | dcd Bed | cBc A3 |\
fAf gfg | eAe fef | dcd Bed | cBc d2 H|]
.[FD](3(dcd) .A(3(dcd) | .A(3(fed) ABc | def ged | ca^g a2z |\
F(3(dcd) A(3(dcd) | A(3(fed) ABc | B(3(gfg) A(3(a^ga) | ABc df"^D.C."e |]
A,DF AFD | A,DF A3 | GEC A,CE | BAF G2E |\
A,DF AFD | A,DF A3 | BGE AFD | GEC "^D.C."D2 |]
% - - - - - - - - - - Dance description - - - - - - - - - -
%%begintext align
%% First 2 forward and back,
%% cross over,
%% chassa de chassa,
%% cross back,
%% ladies chain,
%% promenade 4.
%% Next 2 forward, &c.
%%endtext
% - - - - - - - - - - - - - - - - - - - - - - - - - - - - -
%%sep 1 1 300


